assets/icons/24px/stroke/credit-card-24px.svg

<svg width="24" height="24" viewBox="0 0 24 24" fill="none" xmlns="http://www.w3.org/2000/svg">
<path fill-rule="evenodd" clip-rule="evenodd" d="M6.93417 3.99997C6.95604 3.99997 6.97799 3.99997 7 3.99997L17.0658 3.99997C17.9523 3.99992 18.7161 3.99988 19.3278 4.08211C19.9833 4.17025 20.6117 4.36899 21.1213 4.87865C21.631 5.38832 21.8297 6.01667 21.9179 6.67218C22.0001 7.28385 22.0001 8.04767 22 8.93417V15.0658C22.0001 15.9523 22.0001 16.7161 21.9179 17.3278C21.8297 17.9833 21.631 18.6116 21.1213 19.1213C20.6117 19.631 19.9833 19.8297 19.3278 19.9178C18.7161 20.0001 17.9523 20 17.0658 20H6.93417C6.04769 20 5.28387 20.0001 4.67221 19.9178C4.0167 19.8297 3.38835 19.631 2.87868 19.1213C2.36902 18.6116 2.17028 17.9833 2.08215 17.3278C1.99991 16.7161 1.99995 15.9523 2 15.0658L2 8.99997C2 8.97796 2 8.95601 2 8.93414C1.99995 8.04766 1.99991 7.28384 2.08215 6.67218C2.17028 6.01667 2.36902 5.38832 2.87868 4.87865C3.38835 4.36899 4.0167 4.17025 4.67221 4.08211C5.28387 3.99988 6.04769 3.99992 6.93417 3.99997ZM4.93871 6.06428C4.50497 6.1226 4.36902 6.21674 4.2929 6.29287C4.21677 6.36899 4.12263 6.50494 4.06431 6.93868C4.00213 7.40118 4 8.0289 4 8.99997V15C4 15.9711 4.00213 16.5988 4.06431 17.0613C4.12263 17.495 4.21677 17.631 4.2929 17.7071C4.36902 17.7832 4.50497 17.8774 4.93871 17.9357C5.40121 17.9979 6.02893 18 7 18H17C17.9711 18 18.5988 17.9979 19.0613 17.9357C19.495 17.8774 19.631 17.7832 19.7071 17.7071C19.7832 17.631 19.8774 17.495 19.9357 17.0613C19.9979 16.5988 20 15.9711 20 15V8.99997C20 8.0289 19.9979 7.40118 19.9357 6.93868C19.8774 6.50494 19.7832 6.36899 19.7071 6.29287C19.631 6.21674 19.495 6.1226 19.0613 6.06428C18.5988 6.0021 17.9711 5.99997 17 5.99997H7C6.02893 5.99997 5.40122 6.0021 4.93871 6.06428Z" fill="white"/>
<path fill-rule="evenodd" clip-rule="evenodd" d="M2 9C2 8.44772 2.44772 8 3 8L21 8C21.5523 8 22 8.44772 22 9C22 9.55228 21.5523 10 21 10L3 10C2.44772 10 2 9.55228 2 9Z" fill="white"/>
<path fill-rule="evenodd" clip-rule="evenodd" d="M6 15C6 14.4477 6.44772 14 7 14H13C13.5523 14 14 14.4477 14 15C14 15.5523 13.5523 16 13 16H7C6.44772 16 6 15.5523 6 15Z" fill="white"/>
</svg>

<svg width="24" height="24" fill="none" xmlns="http://www.w3.org/2000/svg"><path fill-rule="evenodd" clip-rule="evenodd" d="M6.934 4H17.066c.886 0 1.65 0 2.262.082.655.088 1.284.287 1.793.797.51.51.709 1.138.797 1.793C22 7.284 22 8.048 22 8.934v6.132c0 .886 0 1.65-.082 2.262-.088.655-.287 1.284-.797 1.793-.51.51-1.138.709-1.793.797-.612.082-1.376.082-2.262.082H6.934c-.886 0-1.65 0-2.262-.082-.655-.088-1.284-.287-1.793-.797-.51-.51-.709-1.138-.797-1.793C2 16.716 2 15.952 2 15.066V9v-.066c0-.886 0-1.65.082-2.262.088-.655.287-1.284.797-1.793.51-.51 1.138-.709 1.793-.797C5.284 4 6.048 4 6.934 4zM4.94 6.064c-.434.059-.57.153-.646.229-.076.076-.17.212-.229.646C4.002 7.4 4 8.029 4 9v6c0 .971.002 1.599.064 2.061.059.434.153.57.229.646.076.076.212.17.646.229C5.4 17.998 6.029 18 7 18h10c.971 0 1.599-.002 2.061-.064.434-.059.57-.153.646-.229.076-.076.17-.212.229-.646.062-.462.064-1.09.064-2.061V9c0-.971-.002-1.599-.064-2.061-.059-.434-.153-.57-.229-.646-.076-.076-.212-.17-.646-.229C18.6 6.002 17.971 6 17 6H7c-.971 0-1.599.002-2.061.064z" fill="#fff"/><path fill-rule="evenodd" clip-rule="evenodd" d="M2 9a1 1 0 0 1 1-1h18a1 1 0 1 1 0 2H3a1 1 0 0 1-1-1zm4 6a1 1 0 0 1 1-1h6a1 1 0 1 1 0 2H7a1 1 0 0 1-1-1z" fill="#fff"/></svg>
